icons/evolvere-blue-folders-flat-vivid-dark-fallback/apps/64/imagemagick.svg

<?xml version="1.0" encoding="UTF-8" standalone="no"?>
<!-- Created with Inkscape (http://www.inkscape.org/) -->

<svg
   xmlns:dc="http://purl.org/dc/elements/1.1/"
   xmlns:cc="http://creativecommons.org/ns#"
   xmlns:rdf="http://www.w3.org/1999/02/22-rdf-syntax-ns#"
   xmlns:svg="http://www.w3.org/2000/svg"
   xmlns="http://www.w3.org/2000/svg"
   xmlns:xlink="http://www.w3.org/1999/xlink"
   xmlns:sodipodi="http://sodipodi.sourceforge.net/DTD/sodipodi-0.dtd"
   xmlns:inkscape="http://www.inkscape.org/namespaces/inkscape"
   width="64"
   height="64"
   id="svg13094"
   version="1.1"
   inkscape:version="0.91+devel r"
   sodipodi:docname="imagemagick.svg">
  <sodipodi:namedview
     id="base"
     pagecolor="#ffffff"
     bordercolor="#666666"
     borderopacity="1.0"
     inkscape:pageopacity="0"
     inkscape:pageshadow="2"
     inkscape:zoom="11.313709"
     inkscape:cx="27.429151"
     inkscape:cy="28.905973"
     inkscape:document-units="px"
     inkscape:current-layer="svg13094"
     showgrid="true"
     inkscape:snap-bbox="true"
     inkscape:bbox-paths="true"
     inkscape:bbox-nodes="true"
     inkscape:snap-bbox-edge-midpoints="true"
     inkscape:snap-bbox-midpoints="true"
     inkscape:object-paths="true"
     inkscape:snap-intersection-paths="true"
     inkscape:object-nodes="true"
     inkscape:snap-smooth-nodes="true"
     inkscape:snap-midpoints="true"
     inkscape:snap-object-midpoints="true"
     inkscape:snap-center="true"
     showguides="true"
     inkscape:guide-bbox="true"
     inkscape:window-width="1920"
     inkscape:window-height="1023"
     inkscape:window-x="-10"
     inkscape:window-y="35"
     inkscape:window-maximized="1"
     inkscape:snap-global="false"
     fit-margin-top="0"
     fit-margin-left="0"
     fit-margin-right="0"
     fit-margin-bottom="0"
     showborder="true"
     inkscape:showpageshadow="false"
     inkscape:snap-page="true">
    <inkscape:grid
       type="xygrid"
       id="grid3075"
       empspacing="5"
       visible="true"
       enabled="true"
       snapvisiblegridlinesonly="true"
       originx="1.6362304e-08px"
       originy="18px" />
  </sodipodi:namedview>
  <defs
     id="defs13096" />
  <metadata
     id="metadata13099">
    <rdf:RDF>
      <cc:Work
         rdf:about="">
        <dc:format>image/svg+xml</dc:format>
        <dc:type
           rdf:resource="http://purl.org/dc/dcmitype/StillImage" />
        <dc:title></dc:title>
      </cc:Work>
    </rdf:RDF>
  </metadata>
  <path
     style="color:#000000;fill:#1c80dc;fill-opacity:1;fill-rule:nonzero;stroke:none;stroke-width:2.28571415;marker:none;visibility:visible;display:inline;overflow:visible;enable-background:accumulate"
     d="M 0 4 L 0 34 L 0 62 L 2 64 L 32 64 L 62 64 L 64 62 L 64 34 L 64 4 L 32 4 L 0 4 z "
     id="path6498" />
  <path
     style="color:#000000;fill:#47b5ff;fill-opacity:1;fill-rule:nonzero;stroke:none;marker:none;visibility:visible;display:inline;overflow:visible;enable-background:accumulate;stroke-width:2.28571415000000000"
     d="M 2 0 L 0 1 L 0 4 L 32 4 L 64 4 L 64 1 L 62 0 L 32 0 L 2 0 z "
     id="path6502" />
  <path
     style="fill:#78c9ff;fill-opacity:1;fill-rule:nonzero"
     d="M 0,3 0,6 2,4 Z"
     id="path4298"
     inkscape:connector-curvature="0"
     sodipodi:nodetypes="cccc" />
  <path
     d="M 64,6 62,4 64,3 z"
     id="path3028"
     style="fill:#3099ec;fill-opacity:1"
     inkscape:connector-curvature="0" />
  <g
     id="g3043"
     inkscape:export-filename="folder.png"
     inkscape:export-xdpi="90"
     inkscape:export-ydpi="90"
     transform="translate(-0.62500009,0.082283)" />
  <g
     id="scalable"
     transform="matrix(1.0385892,0,0,1.0385892,1214.7222,1878.8121)"
     inkscape:label="#g3701"
     style="fill:#ffffff" />
  <g
     id="g3853"
     transform="matrix(0.96592583,-0.25881905,0.25881905,0.96592583,-9.7918261,13.874483)">
    <rect
       transform="matrix(0.5,-0.8660254,0.8660254,0.5,0,0)"
       y="31.899351"
       x="-25.461525"
       height="44"
       width="2"
       id="rect3764"
       style="color:#000000;fill:#bfc5c3;fill-opacity:1;fill-rule:nonzero;stroke:none;stroke-width:2;marker:none;visibility:visible;display:inline;overflow:visible;enable-background:accumulate" />
    <g
       transform="matrix(-0.53037365,1.6025671,-1.6025671,-0.53037365,51.160675,24.07836)"
       id="g3794">
      <path
         transform="matrix(-0.053531,-0.50888874,0.50888874,-0.053531,4.9914369,33.606093)"
         inkscape:transform-center-y="0.16502032"
         d="m 33,12 c 0.265924,0 2.714405,5.811525 2.929542,5.967831 0.215137,0.156307 6.498848,0.689091 6.581023,0.941999 0.08217,0.252909 -4.688291,4.377413 -4.770467,4.630321 -0.08218,0.252909 1.352891,6.393713 1.137754,6.550019 C 38.662715,30.246476 33.265924,26.984035 33,26.984035 c -0.265924,0 -5.662716,3.262441 -5.877853,3.106135 -0.215137,-0.156306 1.219929,-6.29711 1.137754,-6.550019 -0.08217,-0.252908 -4.852641,-4.377412 -4.770466,-4.630321 0.08217,-0.252909 6.365886,-0.785693 6.581023,-0.941999 C 30.285595,17.811525 32.734076,12 33,12 Z"
         inkscape:randomized="0"
         inkscape:rounded="0.04"
         inkscape:flatsided="false"
         sodipodi:arg2="-0.94247777"
         sodipodi:arg1="-1.5707963"
         sodipodi:r2="4.9840345"
         sodipodi:r1="10"
         sodipodi:cy="22"
         sodipodi:cx="33"
         sodipodi:sides="5"
         id="path3845"
         style="color:#000000;fill:#f8e88d;fill-opacity:1;fill-rule:nonzero;stroke:none;stroke-width:2;marker:none;visibility:visible;display:inline;overflow:visible;enable-background:accumulate"
         sodipodi:type="star"
         inkscape:transform-center-x="0.32777901" />
    </g>
  </g>
  <use
     height="64"
     width="64"
     transform="matrix(0.02964351,-0.29607996,0.29607996,0.02964351,3.1492203,36.951734)"
     id="use3815"
     xlink:href="#g3794"
     y="0"
     x="0" />
  <use
     height="64"
     width="64"
     transform="matrix(0.02403151,-0.24002715,0.24002715,0.02403151,23.033486,45.841037)"
     id="use3817"
     xlink:href="#g3794"
     y="0"
     x="0" />
  <use
     x="0"
     y="0"
     xlink:href="#g3794"
     id="use3825"
     transform="matrix(0.44954861,0.16411165,-0.16411165,0.44954861,25.637687,16.73898)"
     width="64"
     height="64" />
  <use
     height="64"
     width="64"
     transform="matrix(0.16554731,-0.13863985,0.13863985,0.16554731,21.811479,15.016873)"
     id="use3801"
     xlink:href="#g3794"
     y="0"
     x="0" />
  <use
     height="64"
     width="64"
     transform="matrix(0.24736231,-0.05113469,0.05113469,0.24736231,40.880366,7.914033)"
     id="use3803"
     xlink:href="#g3794"
     y="0"
     x="0" />
  <use
     x="0"
     y="0"
     xlink:href="#g3794"
     id="use3827"
     transform="matrix(0.25342932,-0.21223782,0.21223782,0.25342932,28.295302,12.681603)"
     width="64"
     height="64" />
  <use
     height="64"
     width="64"
     transform="matrix(0.34689829,0.00743015,-0.00743015,0.34689829,25.220071,11.305641)"
     id="use3805"
     xlink:href="#g3794"
     y="0"
     x="0" />
  <use
     height="64"
     width="64"
     transform="matrix(0.01903089,-0.19008088,0.19008088,0.01903089,46.168526,14.249772)"
     id="use3807"
     xlink:href="#g3794"
     y="0"
     x="0" />
  <use
     height="64"
     width="64"
     transform="matrix(0.02809986,-0.28066185,0.28066185,0.02809986,27.349398,31.463366)"
     id="use3809"
     xlink:href="#g3794"
     y="0"
     x="0" />
  <use
     height="64"
     width="64"
     transform="matrix(0.01842731,-0.18405231,0.18405231,0.01842731,38.524854,10.428902)"
     id="use3811"
     xlink:href="#g3794"
     y="0"
     x="0" />
  <use
     height="64"
     width="64"
     transform="matrix(0.04040774,-0.40359317,0.40359317,0.04040774,32.333161,31.753591)"
     id="use3813"
     xlink:href="#g3794"
     y="0"
     x="0" />
  <use
     height="64"
     width="64"
     transform="matrix(0.02385835,-0.23829755,0.23829755,0.02385835,23.476506,34.340832)"
     id="use3819"
     xlink:href="#g3794"
     y="0"
     x="0" />
  <use
     height="64"
     width="64"
     transform="matrix(0.02300304,-0.22975485,0.22975485,0.02300304,23.745227,13.555432)"
     id="use3821"
     xlink:href="#g3794"
     y="0"
     x="0" />
  <use
     height="64"
     width="64"
     transform="matrix(0.01571826,-0.15699428,0.15699428,0.01571826,17.408944,19.88822)"
     id="use3823"
     xlink:href="#g3794"
     y="0"
     x="0" />
  <use
     height="64"
     width="64"
     transform="matrix(0.01652453,-0.16504721,0.16504721,0.01652453,51.33326,25.286795)"
     id="use3847"
     xlink:href="#g3794"
     y="0"
     x="0" />
  <use
     x="0"
     y="0"
     xlink:href="#g3794"
     id="use3797"
     transform="matrix(0.01652453,-0.16504721,0.16504721,0.01652453,52.252585,34.368485)"
     width="64"
     height="64" />
  <use
     height="64"
     width="64"
     transform="matrix(0.45217111,0.16506902,-0.16506902,0.45217111,21.181251,9.1804752)"
     id="use3799"
     xlink:href="#g3794"
     y="0"
     x="0" />
</svg>

<svg xmlns="http://www.w3.org/2000/svg" xmlns:xlink="http://www.w3.org/1999/xlink" viewBox="0 0 64 64"><g color="#000"><path d="m0 4v30 28l2 2h30 30l2-2v-28-30h-32-32" fill="#1c80dc"/><path d="m2 0l-2 1v3h32 32v-3l-2-1h-30-30" fill="#47b5ff"/></g><path d="m0 3v3l2-2" fill="#78c9ff"/><path d="m64 6l-2-2 2-1z" fill="#3099ec"/><g transform="matrix(.96593-.25882.25882.96593-9.792 13.874)"><path transform="matrix(.5-.86603.86603.5 0 0)" fill="#bfc5c3" color="#000" d="m-25.462 31.899h2v44h-2z"/><g transform="matrix(-.53037 1.60257-1.60257-.53037 51.16 24.08)" id="0"><path transform="matrix(-.05353-.50889.50889-.05353 4.991 33.606)" d="m33 12c.266 0 2.714 5.812 2.93 5.968.215.156 6.499.689 6.581.942.082.253-4.688 4.377-4.77 4.63-.082.253 1.353 6.394 1.138 6.55-.215.156-5.612-3.106-5.878-3.106-.266 0-5.663 3.262-5.878 3.106-.215-.156 1.22-6.297 1.138-6.55-.082-.253-4.853-4.377-4.77-4.63.082-.253 6.366-.786 6.581-.942.215-.156 2.664-5.968 2.93-5.968" fill="#f8e88d" color="#000"/></g></g><use height="64" width="64" transform="matrix(.02964-.29608.29608.02964 3.149 36.952)" xlink:href="#0"/><use height="64" width="64" transform="matrix(.02403-.24003.24003.02403 23.03 45.841)" xlink:href="#0"/><use xlink:href="#0" transform="matrix(.44955.16411-.16411.44955 25.638 16.739)" width="64" height="64"/><use height="64" width="64" transform="matrix(.16555-.13864.13864.16555 21.811 15.02)" xlink:href="#0"/><use height="64" width="64" transform="matrix(.24736-.05113.05113.24736 40.88 7.914)" xlink:href="#0"/><use xlink:href="#0" transform="matrix(.25343-.21224.21224.25343 28.3 12.682)" width="64" height="64"/><use height="64" width="64" transform="matrix(.3469.00743-.00743.3469 25.22 11.306)" xlink:href="#0"/><use height="64" width="64" transform="matrix(.01903-.19008.19008.01903 46.17 14.25)" xlink:href="#0"/><use height="64" width="64" transform="matrix(.0281-.28066.28066.0281 27.349 31.463)" xlink:href="#0"/><use height="64" width="64" transform="matrix(.01843-.18405.18405.01843 38.525 10.429)" xlink:href="#0"/><use height="64" width="64" transform="matrix(.04041-.40359.40359.04041 32.33 31.754)" xlink:href="#0"/><use height="64" width="64" transform="matrix(.02386-.2383.2383.02386 23.477 34.34)" xlink:href="#0"/><use height="64" width="64" transform="matrix(.023-.22975.22975.023 23.745 13.555)" xlink:href="#0"/><use height="64" width="64" transform="matrix(.01572-.15699.15699.01572 17.409 19.888)" xlink:href="#0"/><use height="64" width="64" transform="matrix(.01652-.16505.16505.01652 51.33 25.287)" xlink:href="#0"/><use xlink:href="#0" transform="matrix(.01652-.16505.16505.01652 52.25 34.37)" width="64" height="64"/><use height="64" width="64" transform="matrix(.45217.16507-.16507.45217 21.18 9.18)" xlink:href="#0"/></svg>
